images/indikatorenset/4229.svg

<?xml version="1.0" standalone="no"?><!DOCTYPE svg PUBLIC "-//W3C//DTD SVG 1.1//EN" "http://www.w3.org/Graphics/SVG/1.1/DTD/svg11.dtd"><svg xmlns:xlink="http://www.w3.org/1999/xlink" version="1.1" class="highcharts-root" style="font-family:arial;font-size:9pt;" xmlns="http://www.w3.org/2000/svg" width="485" height="415"><desc>Created with Highstock 5.0.14</desc><defs><clipPath id="highcharts-uq9weus-7"><rect x="0" y="0" width="432" height="197" fill="none"></rect></clipPath><clipPath id="highcharts-uq9weus-8"><rect x="0" y="0" width="432" height="197" fill="none"></rect></clipPath></defs><rect fill="#fbfbfb" class="highcharts-background" x="0" y="0" width="485" height="415" rx="0" ry="0"></rect><rect fill="none" class="highcharts-plot-background" x="43" y="147" width="432" height="197"></rect><g class="highcharts-label" style="cursor:pointer;" transform="translate(10,451)"><text x="0" y="0"><tspan>&gt; Indikator-Details</tspan></text></g><g class="highcharts-pane-group"></g><g class="highcharts-grid highcharts-xaxis-grid "><path fill="none" class="highcharts-grid-line" d="M 90.5 147 L 90.5 344" opacity="1"></path><path fill="none" class="highcharts-grid-line" d="M 138.5 147 L 138.5 344" opacity="1"></path><path fill="none" class="highcharts-grid-line" d="M 186.5 147 L 186.5 344" opacity="1"></path><path fill="none" class="highcharts-grid-line" d="M 234.5 147 L 234.5 344" opacity="1"></path><path fill="none" class="highcharts-grid-line" d="M 282.5 147 L 282.5 344" opacity="1"></path><path fill="none" class="highcharts-grid-line" d="M 330.5 147 L 330.5 344" opacity="1"></path><path fill="none" class="highcharts-grid-line" d="M 378.5 147 L 378.5 344" opacity="1"></path><path fill="none" class="highcharts-grid-line" d="M 426.5 147 L 426.5 344" opacity="1"></path><path fill="none" class="highcharts-grid-line" d="M 474.5 147 L 474.5 344" opacity="1"></path><path fill="none" class="highcharts-grid-line" d="M 42.5 147 L 42.5 344" opacity="1"></path></g><g class="highcharts-grid highcharts-yaxis-grid "><path fill="none" stroke="#e6e6e6" stroke-width="1" class="highcharts-grid-line" d="M 43 344.5 L 475 344.5" opacity="1"></path><path fill="none" stroke="#e6e6e6" stroke-width="1" class="highcharts-grid-line" d="M 43 295.5 L 475 295.5" opacity="1"></path><path fill="none" stroke="#e6e6e6" stroke-width="1" class="highcharts-grid-line" d="M 43 246.5 L 475 246.5" opacity="1"></path><path fill="none" stroke="#e6e6e6" stroke-width="1" class="highcharts-grid-line" d="M 43 196.5 L 475 196.5" opacity="1"></path><path fill="none" stroke="#e6e6e6" stroke-width="1" class="highcharts-grid-line" d="M 43 146.5 L 475 146.5" opacity="1"></path></g><g class="highcharts-grid highcharts-yaxis-grid "></g><rect fill="none" class="highcharts-plot-border" x="43" y="147" width="432" height="197"></rect><g class="highcharts-axis highcharts-xaxis "><path fill="none" class="highcharts-axis-line" stroke="#ccd6eb" stroke-width="1" d="M 43 344.5 L 475 344.5"></path></g><g class="highcharts-axis highcharts-yaxis "><path fill="none" class="highcharts-axis-line" d="M 43 147 L 43 344"></path></g><g class="highcharts-axis highcharts-yaxis "><path fill="none" class="highcharts-axis-line" d="M 475 147 L 475 344"></path></g><g class="highcharts-series-group"><g class="highcharts-series highcharts-series-0 highcharts-line-series highcharts-color-undefined " transform="translate(43,147) scale(1 1)" clip-path="url(#highcharts-uq9weus-8)"><path fill="none" d="M 72 147.75 L 120 135.536 L 216 110.8125 L 312 64.22199999999998 L 360 44.128000000000014 L 408 25.41300000000001" class="highcharts-graph" stroke="#FF8028" stroke-width="2" stroke-linejoin="round" stroke-linecap="round"></path></g><g class="highcharts-markers highcharts-series-0 highcharts-line-series highcharts-color-undefined " transform="translate(43,147) scale(1 1)" clip-path="none"></g><g class="highcharts-series highcharts-series-1 highcharts-line-series highcharts-color-undefined " transform="translate(43,147) scale(1 1)" clip-path="url(#highcharts-uq9weus-8)"><path fill="none" d="M 72 147.75 L 120 144.3025 L 216 144.401 L 312 156.024 L 360 162.62349999999998 L 408 171.2915" class="highcharts-graph" stroke="#DC440E" stroke-width="2" stroke-linejoin="round" stroke-linecap="round"></path></g><g class="highcharts-markers highcharts-series-1 highcharts-line-series highcharts-color-undefined " transform="translate(43,147) scale(1 1)" clip-path="none"></g><g class="highcharts-series highcharts-series-2 highcharts-line-series highcharts-color-undefined " transform="translate(43,147) scale(1 1)" clip-path="url(#highcharts-uq9weus-8)"><path fill="none" d="M 24 154.645 L 72 147.75 L 120 136.718 L 168 129.62599999999998 L 216 122.928 L 264 112.487 L 312 92.59 L 360 83.72500000000001 L 408 72.20050000000002" class="highcharts-graph" stroke="#B375AB" stroke-width="2" stroke-linejoin="round" stroke-linecap="round"></path></g><g class="highcharts-markers highcharts-series-2 highcharts-line-series highcharts-color-undefined " transform="translate(43,147) scale(1 1)" clip-path="none"></g><g class="highcharts-series highcharts-series-3 highcharts-line-series highcharts-color-undefined " transform="translate(43,147) scale(1 1)" clip-path="url(#highcharts-uq9weus-8)"><path fill="none" d="M 24 150.6065 L 72 147.75 L 120 148.6365 L 168 149.12900000000002 L 216 149.917 L 264 148.735 L 312 151.9855 L 360 158.0925 L 408 161.6385" class="highcharts-graph" stroke="#923F8D" stroke-width="2" stroke-linejoin="round" stroke-linecap="round"></path></g><g class="highcharts-markers highcharts-series-3 highcharts-line-series highcharts-color-undefined " transform="translate(43,147) scale(1 1)" clip-path="none"></g></g><text x="10" text-anchor="start" class="highcharts-title" style="color:#000000;font-size:1.1em;font-weight:bold;fill:#000000;" y="20"><tspan>Energieeffizienz</tspan></text><text x="10" text-anchor="start" class="highcharts-subtitle" style="color:#000000;font-size:0.9em;fill:#000000;" y="38"><tspan>Indexwert (Basis 1995 = 100)</tspan></text><g class="highcharts-legend" transform="translate(10,40)"><rect fill="none" class="highcharts-legend-box" rx="0" ry="0" x="0" y="0" width="312" height="95" visibility="visible"></rect><g><g><g class="highcharts-legend-item highcharts-line-series highcharts-color-undefined highcharts-series-0" transform="translate(12,7)"><path fill="none" d="M 0 11 L 16 11" class="highcharts-graph" stroke="#FF8028" stroke-width="2"></path><text x="21" style="color:#333333;font-size:1em;font-weight:normal;cursor:pointer;fill:#333333;" text-anchor="start" y="15"><tspan>BS: Energieeffizienz (BIP/Bruttoenergieverbrauch)</tspan></text></g><g class="highcharts-legend-item highcharts-line-series highcharts-color-undefined highcharts-series-1" transform="translate(12,26)"><path fill="none" d="M 0 11 L 16 11" class="highcharts-graph" stroke="#DC440E" stroke-width="2"></path><text x="21" y="15" style="color:#333333;font-size:1em;font-weight:normal;cursor:pointer;fill:#333333;" text-anchor="start"><tspan>BS: Energieverbrauch pro Einwohner</tspan></text></g><g class="highcharts-legend-item highcharts-line-series highcharts-color-undefined highcharts-series-2" transform="translate(12,45)"><path fill="none" d="M 0 11 L 16 11" class="highcharts-graph" stroke="#B375AB" stroke-width="2"></path><text x="21" y="15" style="color:#333333;font-size:1em;font-weight:normal;cursor:pointer;fill:#333333;" text-anchor="start"><tspan>BL: Energieeffizienz (BIP/Bruttoenergieverbrauch)</tspan></text></g><g class="highcharts-legend-item highcharts-line-series highcharts-color-undefined highcharts-series-3" transform="translate(12,64)"><path fill="none" d="M 0 11 L 16 11" class="highcharts-graph" stroke="#923F8D" stroke-width="2"></path><text x="21" y="15" style="color:#333333;font-size:1em;font-weight:normal;cursor:pointer;fill:#333333;" text-anchor="start"><tspan>BL: Energieverbrauch pro Einwohner</tspan></text></g></g></g></g><g class="highcharts-axis-labels highcharts-xaxis-labels "><text x="67" style="color:#000000;cursor:default;font-size:0.9em;fill:#000000;" text-anchor="middle" transform="translate(0,0)" y="363" opacity="1">1990</text><text x="115" style="color:#000000;cursor:default;font-size:0.9em;fill:#000000;" text-anchor="middle" transform="translate(0,0)" y="363" opacity="1">1995</text><text x="163" style="color:#000000;cursor:default;font-size:0.9em;fill:#000000;" text-anchor="middle" transform="translate(0,0)" y="363" opacity="1">2000</text><text x="211" style="color:#000000;cursor:default;font-size:0.9em;fill:#000000;" text-anchor="middle" transform="translate(0,0)" y="363" opacity="1">2002</text><text x="259" style="color:#000000;cursor:default;font-size:0.9em;fill:#000000;" text-anchor="middle" transform="translate(0,0)" y="363" opacity="1">2004</text><text x="307" style="color:#000000;cursor:default;font-size:0.9em;fill:#000000;" text-anchor="middle" transform="translate(0,0)" y="363" opacity="1">2006</text><text x="355" style="color:#000000;cursor:default;font-size:0.9em;fill:#000000;" text-anchor="middle" transform="translate(0,0)" y="363" opacity="1">2010</text><text x="403" style="color:#000000;cursor:default;font-size:0.9em;fill:#000000;" text-anchor="middle" transform="translate(0,0)" y="363" opacity="1">2012</text><text x="451" style="color:#000000;cursor:default;font-size:0.9em;fill:#000000;" text-anchor="middle" transform="translate(0,0)" y="363" opacity="1">2014</text></g><g class="highcharts-axis-labels highcharts-yaxis-labels "><text x="28" style="color:#000000;cursor:default;font-size:0.9em;fill:#000000;" text-anchor="end" transform="translate(0,0)" y="349" opacity="1"><tspan>50</tspan></text><text x="28" style="color:#000000;cursor:default;font-size:0.9em;fill:#000000;" text-anchor="end" transform="translate(0,0)" y="299" opacity="1"><tspan>100</tspan></text><text x="28" style="color:#000000;cursor:default;font-size:0.9em;fill:#000000;" text-anchor="end" transform="translate(0,0)" y="250" opacity="1"><tspan>150</tspan></text><text x="28" style="color:#000000;cursor:default;font-size:0.9em;fill:#000000;" text-anchor="end" transform="translate(0,0)" y="201" opacity="1"><tspan>200</tspan></text><text x="28" style="color:#000000;cursor:default;font-size:0.9em;fill:#000000;" text-anchor="end" transform="translate(0,0)" y="152" opacity="1"><tspan>250</tspan></text></g><g class="highcharts-axis-labels highcharts-yaxis-labels "></g><text x="10" class="highcharts-credits" text-anchor="start" style="cursor:default;color:#000000;font-size:0.8em;fill:#000000;" y="400"><tspan>Quelle: Statistisches Amt Basel-Stadt; Statistisches Amt Basel-Landschaft, BAK Basel</tspan></text></svg>

<svg class="highcharts-root" xmlns="http://www.w3.org/2000/svg" width="485" height="415" font-family="arial" font-size="12">
    <defs>
        <clipPath id="a">
            <path fill="none" d="M0 0h432v197H0z"/>
        </clipPath>
    </defs>
    <rect fill="#fbfbfb" class="highcharts-background" width="485" height="415" rx="0" ry="0"/>
    <path fill="none" class="highcharts-plot-background" d="M43 147h432v197H43z"/>
    <text transform="translate(10 451)" class="highcharts-label" cursor="pointer">
        <tspan>&gt; Indikator-Details</tspan>
    </text>
    <g class="highcharts-grid highcharts-xaxis-grid">
        <path fill="none" class="highcharts-grid-line" d="M90.5 147v197m48-197v197m48-197v197m48-197v197m48-197v197m48-197v197m48-197v197m48-197v197m48-197v197m-432-197v197"/>
    </g>
    <g class="highcharts-grid highcharts-yaxis-grid">
        <path fill="none" stroke="#e6e6e6" class="highcharts-grid-line" d="M43 344.5h432m-432-49h432m-432-49h432m-432-50h432m-432-50h432"/>
    </g>
    <path fill="none" class="highcharts-plot-border" d="M43 147h432v197H43z"/>
    <g class="highcharts-axis highcharts-xaxis">
        <path fill="none" class="highcharts-axis-line" stroke="#ccd6eb" d="M43 344.5h432"/>
    </g>
    <g class="highcharts-axis highcharts-yaxis">
        <path fill="none" class="highcharts-axis-line" d="M43 147v197"/>
    </g>
    <g class="highcharts-axis highcharts-yaxis">
        <path fill="none" class="highcharts-axis-line" d="M475 147v197"/>
    </g>
    <g class="highcharts-series-group">
        <g class="highcharts-series highcharts-series-0 highcharts-line-series highcharts-color-undefined" transform="translate(43 147)" clip-path="url(#a)">
            <path fill="none" d="M72 147.75l48-12.214 96-24.724 96-46.59 48-20.094 48-18.715" class="highcharts-graph" stroke="#FF8028" stroke-width="2" stroke-linejoin="round" stroke-linecap="round"/>
        </g>
        <g class="highcharts-series highcharts-series-1 highcharts-line-series highcharts-color-undefined" transform="translate(43 147)" clip-path="url(#a)">
            <path fill="none" d="M72 147.75l48-3.447 96 .098 96 11.623 48 6.6 48 8.668" class="highcharts-graph" stroke="#DC440E" stroke-width="2" stroke-linejoin="round" stroke-linecap="round"/>
        </g>
        <g class="highcharts-series highcharts-series-2 highcharts-line-series highcharts-color-undefined" transform="translate(43 147)" clip-path="url(#a)">
            <path fill="none" d="M24 154.645l48-6.895 48-11.032 48-7.092 48-6.698 48-10.441 48-19.897 48-8.865 48-11.524" class="highcharts-graph" stroke="#B375AB" stroke-width="2" stroke-linejoin="round" stroke-linecap="round"/>
        </g>
        <g class="highcharts-series highcharts-series-3 highcharts-line-series highcharts-color-undefined" transform="translate(43 147)" clip-path="url(#a)">
            <path fill="none" d="M24 150.607l48-2.857 48 .887 48 .492 48 .788 48-1.182 48 3.25 48 6.107 48 3.546" class="highcharts-graph" stroke="#923F8D" stroke-width="2" stroke-linejoin="round" stroke-linecap="round"/>
        </g>
    </g>
    <text x="10" class="highcharts-title" y="20" color="#000" font-size="1.1em" font-weight="700">
        <tspan>Energieeffizienz</tspan>
    </text>
    <text x="10" class="highcharts-subtitle" y="38" color="#000" font-size=".9em">
        <tspan>Indexwert (Basis 1995 = 100)</tspan>
    </text>
    <g class="highcharts-legend" transform="translate(10 40)">
        <rect fill="none" class="highcharts-legend-box" rx="0" ry="0" width="312" height="95"/>
        <g class="highcharts-legend-item highcharts-line-series highcharts-color-undefined highcharts-series-0">
            <path fill="none" d="M12 18h16" class="highcharts-graph" stroke="#FF8028" stroke-width="2"/>
            <text x="21" y="15" color="#333" font-size="1em" font-weight="400" cursor="pointer" fill="#333" transform="translate(12 7)">
                <tspan>BS: Energieeffizienz (BIP/Bruttoenergieverbrauch)</tspan>
            </text>
        </g>
        <g class="highcharts-legend-item highcharts-line-series highcharts-color-undefined highcharts-series-1">
            <path fill="none" d="M12 37h16" class="highcharts-graph" stroke="#DC440E" stroke-width="2"/>
            <text x="21" y="15" color="#333" font-size="1em" font-weight="400" cursor="pointer" fill="#333" transform="translate(12 26)">
                <tspan>BS: Energieverbrauch pro Einwohner</tspan>
            </text>
        </g>
        <g class="highcharts-legend-item highcharts-line-series highcharts-color-undefined highcharts-series-2">
            <path fill="none" d="M12 56h16" class="highcharts-graph" stroke="#B375AB" stroke-width="2"/>
            <text x="21" y="15" color="#333" font-size="1em" font-weight="400" cursor="pointer" fill="#333" transform="translate(12 45)">
                <tspan>BL: Energieeffizienz (BIP/Bruttoenergieverbrauch)</tspan>
            </text>
        </g>
        <g class="highcharts-legend-item highcharts-line-series highcharts-color-undefined highcharts-series-3">
            <path fill="none" d="M12 75h16" class="highcharts-graph" stroke="#923F8D" stroke-width="2"/>
            <text x="21" y="15" color="#333" font-size="1em" font-weight="400" cursor="pointer" fill="#333" transform="translate(12 64)">
                <tspan>BL: Energieverbrauch pro Einwohner</tspan>
            </text>
        </g>
    </g>
    <g class="highcharts-axis-labels highcharts-xaxis-labels" text-anchor="middle" color="#000" cursor="default" font-size=".9em">
        <text x="67" y="363">
            1990
        </text>
        <text x="115" y="363">
            1995
        </text>
        <text x="163" y="363">
            2000
        </text>
        <text x="211" y="363">
            2002
        </text>
        <text x="259" y="363">
            2004
        </text>
        <text x="307" y="363">
            2006
        </text>
        <text x="355" y="363">
            2010
        </text>
        <text x="403" y="363">
            2012
        </text>
        <text x="451" y="363">
            2014
        </text>
    </g>
    <g class="highcharts-axis-labels highcharts-yaxis-labels" text-anchor="end" color="#000" cursor="default" font-size=".9em">
        <text x="28" y="349">
            <tspan>50</tspan>
        </text>
        <text x="28" y="299">
            <tspan>100</tspan>
        </text>
        <text x="28" y="250">
            <tspan>150</tspan>
        </text>
        <text x="28" y="201">
            <tspan>200</tspan>
        </text>
        <text x="28" y="152">
            <tspan>250</tspan>
        </text>
    </g>
    <text x="10" class="highcharts-credits" y="400" cursor="default" color="#000" font-size=".8em">
        <tspan>Quelle: Statistisches Amt Basel-Stadt; Statistisches Amt Basel-Landschaft, BAK Basel</tspan>
    </text>
</svg>
